public/hamburger.svg

<svg width="48" height="48" viewBox="0 0 48 48" fill="none" xmlns="http://www.w3.org/2000/svg">
<g clip-path="url(#clip0_4_51)">
<path d="M8 36H40C41.1 36 42 35.1 42 34C42 32.9 41.1 32 40 32H8C6.9 32 6 32.9 6 34C6 35.1 6.9 36 8 36ZM8 26H40C41.1 26 42 25.1 42 24C42 22.9 41.1 22 40 22H8C6.9 22 6 22.9 6 24C6 25.1 6.9 26 8 26ZM6 14C6 15.1 6.9 16 8 16H40C41.1 16 42 15.1 42 14C42 12.9 41.1 12 40 12H8C6.9 12 6 12.9 6 14Z" fill="white"/>
</g>
<defs>
<clipPath id="clip0_4_51">
<rect width="48" height="48" fill="white"/>
</clipPath>
</defs>
</svg>

<svg xmlns="http://www.w3.org/2000/svg" width="48" height="48" fill="none"><g clip-path="url(#a)"><path fill="#fff" d="M8 36h32a2 2 0 0 0 2-2 2 2 0 0 0-2-2H8a2 2 0 0 0-2 2c0 1.1.9 2 2 2Zm0-10h32a2 2 0 0 0 2-2 2 2 0 0 0-2-2H8a2 2 0 0 0-2 2c0 1.1.9 2 2 2ZM6 14c0 1.1.9 2 2 2h32a2 2 0 0 0 2-2 2 2 0 0 0-2-2H8a2 2 0 0 0-2 2Z"/></g><defs><clipPath id="a"><path fill="#fff" d="M0 0h48v48H0z"/></clipPath></defs></svg>
